packages/bezier-icons/icons/bear.svg

<svg width="24" height="24" viewBox="0 0 24 24" fill="none" xmlns="http://www.w3.org/2000/svg">
<path d="M11 12C10.4477 12 9.99997 12.4477 9.99997 13C9.99997 13.5523 10.4477 14 11 14L10.9932 14.1166C10.9355 14.614 10.5128 15 9.99997 15L9.88335 15.0067C9.38601 15.0645 8.99997 15.4872 8.99997 16C8.99997 16.5523 9.44768 17 9.99997 17C10.7683 17 11.4692 16.7111 12 16.2361C12.5307 16.7111 13.2316 17 14 17C14.5523 17 15 16.5523 15 16C15 15.4872 14.6139 15.0645 14.1166 15.0067L14 15C13.4871 15 13.0645 14.614 13.0067 14.1166L13 14C13.5523 14 14 13.5523 14 13C14 12.4477 13.5523 12 13 12H11Z" fill="#313234"/>
<path d="M8.78631 12.6554C9.63131 12.6554 9.98431 12.0454 9.98431 10.5504C9.98431 9.0544 9.63131 8.4444 8.78631 8.4444C7.94131 8.4444 7.58731 9.0544 7.58731 10.5504C7.58731 12.0454 7.94131 12.6554 8.78631 12.6554Z" fill="#313234"/>
<path d="M16.412 10.5504C16.412 12.0454 16.059 12.6554 15.214 12.6554C14.369 12.6554 14.015 12.0454 14.015 10.5504C14.015 9.0544 14.369 8.4444 15.214 8.4444C16.059 8.4444 16.412 9.0544 16.412 10.5504Z" fill="#313234"/>
<path fill-rule="evenodd" clip-rule="evenodd" d="M16.7552 3.00741C16.1058 3.0468 15.4857 3.24228 14.9406 3.57026L14.901 3.595L14.6252 3.49014C12.9132 2.87546 11.055 2.88574 9.36373 3.49468L9.09896 3.595L9.05845 3.56971C8.44515 3.20102 7.7374 3 6.99996 3C4.79082 3 2.99995 4.79086 2.99995 7L3.00638 7.22781C3.05332 8.05882 3.3559 8.83948 3.85765 9.47557L3.88496 9.509L2.85469 11.4601C2.41161 12.2982 2.17999 13.232 2.17999 14.18L2.1842 14.4033C2.29299 17.288 4.50135 19.6353 7.32531 19.9613L7.56895 19.984L7.87863 20.2929C8.97168 21.3859 10.4542 22 12 22L12.272 21.9937C13.7188 21.9261 15.0925 21.3216 16.1213 20.2929L16.4297 19.9833C17.2472 19.9198 18.0175 19.6966 18.7199 19.3253L18.9247 19.2118C21.613 17.6517 22.6108 14.2324 21.1452 11.4601L20.114 9.509L20.1423 9.47557C20.6896 8.78166 21 7.91569 21 7C21 4.79086 19.2091 3 17 3L16.7552 3.00741ZM17 5C18.1045 5 19 5.89543 19 7C19 7.61162 18.725 8.17607 18.2586 8.55441L17.6206 9.07201L19.3771 12.3948C20.3631 14.2599 19.6504 16.5712 17.7852 17.5572C17.3044 17.8113 16.7751 17.9598 16.2328 17.9929L15.5732 18.0126L14.7071 18.8787C13.9891 19.5966 13.0153 20 12 20C10.9846 20 10.0108 19.5966 9.29285 18.8787L8.41417 18H7.99996C5.89025 18 4.17999 16.2897 4.17999 14.18C4.17999 13.5578 4.33201 12.9449 4.62283 12.3948L6.37934 9.07201L5.7413 8.55441C5.27492 8.17607 4.99995 7.61162 4.99995 7C4.99995 5.89543 5.89539 5 6.99996 5C7.49298 5 7.95578 5.17775 8.31848 5.49612L8.82237 5.93843L9.42289 5.64027C11.0367 4.83902 12.9366 4.82378 14.5762 5.64007L15.1776 5.93951L15.6822 5.49585C16.0438 5.1779 16.5067 5 17 5Z" fill="#313234"/>
</svg>

<svg xmlns="http://www.w3.org/2000/svg" width="24" height="24" fill="none" viewBox="0 0 24 24"><path fill="#313234" d="M11 12a1 1 0 1 0 0 2l-.007.117A1 1 0 0 1 10 15l-.117.007A1 1 0 0 0 10 17a3 3 0 0 0 2-.764c.53.475 1.232.764 2 .764a1 1 0 0 0 .117-1.993L14 15a1 1 0 0 1-.993-.883L13 14a1 1 0 1 0 0-2zM8.786 12.655c.845 0 1.198-.61 1.198-2.105s-.353-2.106-1.198-2.106-1.199.61-1.199 2.106.354 2.105 1.2 2.105M16.412 10.55c0 1.495-.353 2.105-1.198 2.105s-1.199-.61-1.199-2.105.354-2.106 1.199-2.106 1.198.61 1.198 2.106"/><path fill="#313234" fill-rule="evenodd" d="M16.755 3.007c-.65.04-1.27.235-1.814.563l-.04.025-.276-.105a7.77 7.77 0 0 0-5.261.005l-.265.1-.04-.025A4 4 0 0 0 3 7l.005.228c.047.83.35 1.611.852 2.248l.027.033-1.03 1.951a5.8 5.8 0 0 0-.675 2.72l.004.223a5.82 5.82 0 0 0 5.141 5.558l.244.023.31.309A5.83 5.83 0 0 0 12 22l.272-.006a5.83 5.83 0 0 0 3.85-1.701l.308-.31a5.8 5.8 0 0 0 2.29-.658l.205-.113a5.82 5.82 0 0 0 2.22-7.752L20.114 9.51l.028-.033A4 4 0 0 0 17 3zM17 5a2 2 0 0 1 1.259 3.554l-.638.518 1.756 3.323a3.82 3.82 0 0 1-3.144 5.598l-.66.02-.866.866a3.83 3.83 0 0 1-5.414 0L8.414 18H8a3.82 3.82 0 0 1-3.377-5.605l1.756-3.323-.638-.518a2 2 0 1 1 2.577-3.058l.504.442.6-.298a5.78 5.78 0 0 1 5.154 0l.602.3.504-.444A2 2 0 0 1 17 5" clip-rule="evenodd"/></svg>
